X:1
T: The Straw Seat
C:
R:Jig
Q:180
K:D
M:6/8
L:1/16
(3ABc|:d4d2 d2e2d2|c2B2A2 A2B2c2|d4d2 d2e2=f2|e2c2A2 A4Bc|
d4d2 d2f2d2|c2B2A2 A2B2c2|d2Bcd2 =c2B2A2|1G2E2D2 D4(3ABc:|2G2E2D2 D4AG|
|:F2D2F2 A2B2A2|F2D2F2 A2B2A2|E2C2E2 G2A2G2|E2C2E2 G2A2G2|
F2D2F2 A2B2A2|F2D2F2 A2B2c2|d2Bcd2 =c2B2A2|1G2E2D2 D4AG:|2G2E2D2 D4||
